X: 126009
M: 2/4
L: 1/16
K: D
(fe) |\
d3e defe | d2B2B2 (AB) |\
d3e defa | g2e2e2A2 |\
d3e defe | d2B2 d3B |\
|: (fg) |\
a2(ag) fgfe | d2B2B2 (fg) |\
a2(af) gfed | f2e2e2 (fg) |\
abag fgfe | d2B2 g3B |\


